X: 6
T:I Won't Do The Work
M:6/8
L:1/8
C:Old Traditional Gaelic Song
Z:Toby A. Rider <darkrider1@earthlink.NET>
R:Jig
K:C
B| c2 B AGE| c2 B AGE| c E2 EDE|{E}G2 G3 A|
 c2 d e2 a| age ded| c2 A (B/2A/2G)E|1 A3 A3:|2 A3 (A2B)|!
|: c2 A c2 d| e2 a e2 d| (e2A) c2 d| e2 G3 A|
c2 d e2 a| age ded| c2 A (B/2A/2G)E|1 A3 (A2 B):|2 A2 A|
